X:1
T:Non fia piu ver
T:Benedetto Ferrari
T:Source : Musiche Varie a voce sola---Libro primo---Venetia---B.Magni---1633. Editor : André Vierendeels (30/12/16).
T:Notes : Original Clefs C4, F4 Figures in BC are notated in original print See also "E se mai l'empio"(B.Ferrari) with ca. same BC 
T:Non fia piu ver I
T:©
T:©
C:Benedetto Ferrari
Z:©
%%score 1 2
L:1/8
Q:1/4=105
M:4/4
K:C
V:1 treble-8 nm="Tenor" snm="T"
V:2 bass nm="MusicXML Part"
V:1
 z4 z dcB | A4 z2 z E | ^F^GAA A3 G- | A4 z2 z A | B^cdd d3 c | d4 z c c2- | c_BBA A3 G | G3 G G4 | %8
w: Non fia piu|ver ch'à|prez- zo di quel- l'o- ro,|_ ch'à|prez- zo di quel- l'o- ro|_ fal- sis-|* si- mo del crin il|cor io ven-|
 F4 z4 | z ABB c3 d/e/ | c2 z2 z B B>A | B6 A/B/c/B/ | A4 G4 | z4 z2 z E | ^F4 z4 | z2 z ^F G4 | %16
w: da,|do quie gli'oc- * * *|chi al fo- co|rio m'ac- * * *|cen- da,|se|ben,|se ben|
 z EEE E4 | _E4- EDDD | D4 C4 | z2 z d e2 z ^f | g8- | gBBB B4 | _B8- | BAAA A3 G | A8 |] %25
w: son tan- to ge-|* * li- do che|mo- ro,|se ben, se|ben|_ son tan- to ge-||* li- do che mo- *|ro.|
V:2
"^BC""^-natural" A,6 D,2 |"^-natural" E,6 ^C,2 | D,2 F,2 E,4 |"^#" A,,4 ^F,4 | G,2 _B,2 A,4 | %5
 D,3 E, F,2 ^F,2 |"^b" G,2 E,2 F,2 A,,2 | _B,,2 =B,,2 C,4 | F,,2 F,4 E,2 | D,4 C,2 C,2- | %10
 C,2 D,2 E,2 ^F,2 | G,3 A,, B,,2 C,2 | D,4 G,,2 G,2- | G,2 F,2 E,4 | D,2 D,4 C,2 | B,,4 A,,2 A,2- | %16
 A,2 G,4 F,2- | F,2 G,2 A,2 F,2 |"^5""^4 3" G,4 C,2 C,2- | C,2 B,,2 A,,4 | G,,4 F,,4 | %21
"^-natural" E,,4 D,,4 |"^#" C,,4 D,,3 E,, | F,,2 D,,2 E,,4 | A,,8 |] %25

